packages/core/src/svgs/tokens/mono/YES.svg

<svg width="24" height="24" viewBox="0 0 24 24" fill="none" xmlns="http://www.w3.org/2000/svg">
<path d="M22 12C22 14.6522 20.9464 17.1957 19.071 19.071C17.1957 20.9464 14.6522 22 12 22C9.34785 22 6.80429 20.9464 4.92892 19.071C3.05357 17.1957 2 14.6522 2 12C2 9.34785 3.05357 6.80429 4.92892 4.92892C6.80429 3.05357 9.34785 2 12 2C14.6522 2 17.1957 3.05357 19.071 4.92892C20.9464 6.80429 22 9.34785 22 12ZM21.4823 12C21.4823 9.48511 20.4833 7.07324 18.7051 5.29495C16.9268 3.51667 14.5148 2.51764 12 2.51764C9.48511 2.51764 7.07324 3.51667 5.29495 5.29495C3.51667 7.07324 2.51764 9.48511 2.51764 12C2.51764 14.5148 3.51667 16.9268 5.29495 18.7051C7.07324 20.4833 9.48511 21.4823 12 21.4823C14.5148 21.4823 16.9268 20.4833 18.7051 18.7051C20.4833 16.9268 21.4823 14.5148 21.4823 12Z" fill="white"/>
<path d="M16.2822 5.52355C17.0763 5.96473 17.4939 6.52355 17.5293 7.21178C16.941 7.18826 16.4528 7.37062 16.0469 7.75884C15.7763 8.01766 15.1056 8.68826 14.0469 9.75888C13.9586 9.6348 13.8491 9.52719 13.7233 9.44113L11.988 7.71766L13.3939 6.33532C13.7652 5.98576 14.2183 5.73495 14.7116 5.6059C15.219 5.44257 15.7603 5.41419 16.2822 5.52355Z" fill="white"/>
<path d="M6.95342 8.61173C6.77791 8.42149 6.64222 8.19807 6.55433 7.95461C6.46644 7.71115 6.42813 7.45257 6.44165 7.19409C5.72989 7.25291 5.17695 7.67056 4.77694 8.44702C4.64596 9.19027 4.76599 9.95602 5.11812 10.6235C5.30048 10.9764 5.58871 11.347 5.98284 11.7352C6.58283 12.3235 7.01812 12.9353 7.64753 13.5588C7.93505 13.8335 8.15806 14.1685 8.30047 14.5398C8.44287 14.9111 8.50113 15.3094 8.47106 15.7059C8.45341 16.647 8.50636 17.2352 8.54754 17.4822C8.75433 18.4043 9.30031 19.2148 10.0769 19.7529L10.5416 19.8706C10.7357 19.9235 10.8888 19.9471 11.0064 19.9528C11.4416 19.9528 11.8299 19.8176 12.1828 19.5411C12.2181 19.5117 12.224 19.4941 12.2064 19.4823C11.7946 19.0412 11.4123 18.5412 11.4123 17.9823V13.1764C11.4123 12.7765 11.724 12.3352 12.0122 11.8588L9.94171 9.75878C9.58869 10.1883 9.19459 10.3353 8.74165 10.1999C8.53576 10.1412 8.30636 9.98237 8.03577 9.7176L6.95342 8.61762V8.61173Z" fill="white"/>
<path d="M13.7237 9.44099L11.9884 7.7174L11.6354 7.3527C11.106 6.79387 10.5178 6.188 9.94137 5.87035C9.44327 5.60175 8.88798 5.45685 8.32222 5.44784C7.75645 5.43882 7.19681 5.56597 6.69049 5.81856C6.18416 6.07115 5.74597 6.44178 5.4129 6.89918C5.07981 7.3566 4.86159 7.88739 4.77661 8.44681C5.17661 7.67035 5.72956 7.2527 6.44132 7.19387C7.04132 7.18799 7.54132 7.37034 7.94132 7.75858C8.21191 8.0174 8.82368 8.62917 9.78243 9.59389L9.94137 9.7527L12.0119 11.8527C12.3531 12.135 12.5942 12.4762 12.7414 12.8762C12.953 13.535 12.9414 14.2821 12.9236 14.9939V15.582C12.9236 16.8527 12.9177 17.6586 12.9061 18.0115C12.8956 18.5533 12.6789 19.0709 12.3001 19.4585C12.2825 19.4703 12.253 19.4821 12.2061 19.4821C12.2236 19.4938 12.2177 19.5115 12.1766 19.5409C11.8296 19.8175 11.4413 19.9526 11.0002 19.9526C10.8884 19.9526 10.7354 19.9233 10.5413 19.8703L10.0766 19.7527C10.5281 20.1023 11.0577 20.3375 11.6199 20.4383C12.1819 20.539 12.7602 20.5024 13.3051 20.3313C13.85 20.1603 14.3453 19.86 14.7491 19.4561C15.1528 19.0521 15.4528 18.5565 15.6237 18.0115C15.8296 17.3762 15.8119 16.6526 15.8001 15.9703L15.7884 15.5879C15.7825 15.1056 15.7884 14.7939 15.8119 14.6468C15.8824 14.1645 16.0824 13.7409 16.4002 13.3703C16.5649 13.1762 16.7413 12.9879 16.9296 12.7998L17.2824 12.4526C17.8354 11.9291 18.4295 11.3645 18.7707 10.8115C19.0739 10.3174 19.2494 9.75572 19.2818 9.17691C19.3142 8.59812 19.2024 8.02035 18.9563 7.49547C18.7102 6.97061 18.3375 6.51509 17.872 6.16984C17.4062 5.82457 16.862 5.60038 16.2883 5.5174C17.0766 5.96446 17.4942 6.52917 17.5354 7.21152C17.5354 7.77034 17.3589 8.24682 16.9942 8.64681C16.6476 9.02718 16.2867 9.39405 15.912 9.74679C15.5825 10.0703 15.3824 10.2645 14.8825 10.2233C14.7169 10.2125 14.5557 10.1647 14.4112 10.0832C14.2665 10.0018 14.1422 9.88885 14.0472 9.7527C13.9584 9.63068 13.8489 9.52513 13.7237 9.44099Z" fill="white"/>
</svg>

<svg xmlns="http://www.w3.org/2000/svg" width="24" height="24" fill="none" viewBox="0 0 24 24">
    <path fill="#fff" d="M22 12a10 10 0 1 1-20 0 10 10 0 0 1 20 0m-.518 0a9.483 9.483 0 1 0-18.965 0 9.483 9.483 0 0 0 18.965 0"/>
    <path fill="#fff" d="M16.282 5.524q1.193.658 1.247 1.688c-.588-.024-1.076.159-1.482.547-.27.259-.941.93-2 2a1.3 1.3 0 0 0-.324-.318l-1.735-1.723 1.406-1.383c.371-.35.824-.6 1.318-.73a3.07 3.07 0 0 1 1.57-.081M6.953 8.612a1.94 1.94 0 0 1-.511-1.418q-1.066.089-1.665 1.253a3.4 3.4 0 0 0 .341 2.177q.273.529.865 1.111c.6.588 1.035 1.2 1.665 1.824a2.69 2.69 0 0 1 .823 2.147c-.018.941.035 1.53.077 1.776a3.77 3.77 0 0 0 1.529 2.27l.465.119c.194.053.347.076.464.082a1.85 1.85 0 0 0 1.177-.412q.051-.043.023-.059c-.411-.44-.794-.94-.794-1.5v-4.806c0-.4.312-.84.6-1.317l-2.07-2.1c-.353.43-.747.576-1.2.44-.206-.058-.436-.217-.706-.481l-1.083-1.1z"/>
    <path fill="#fff" d="m13.724 9.441-1.736-1.724-.353-.364c-.529-.56-1.117-1.165-1.694-1.483a3.53 3.53 0 0 0-5.164 2.577q.599-1.165 1.664-1.253c.6-.006 1.1.176 1.5.565q.404.387 1.841 1.835l.16.159 2.07 2.1q.51.423.73 1.023c.211.659.2 1.406.182 2.118v.588c0 1.27-.006 2.077-.018 2.43a2.13 2.13 0 0 1-.606 1.447.17.17 0 0 1-.094.023c.018.012.012.03-.03.059a1.83 1.83 0 0 1-1.176.412q-.168-.002-.459-.083l-.464-.117a3.542 3.542 0 0 0 5.547-1.741c.206-.636.188-1.36.176-2.042l-.012-.382c-.005-.482 0-.794.024-.941.07-.482.27-.906.588-1.277q.247-.29.53-.57l.352-.347c.553-.524 1.148-1.088 1.489-1.641a3.5 3.5 0 0 0-2.483-5.295q1.185.67 1.247 1.695c0 .558-.176 1.035-.54 1.435q-.52.57-1.083 1.1c-.33.323-.53.518-1.03.476a1.1 1.1 0 0 1-.835-.47 1.3 1.3 0 0 0-.323-.312"/>
</svg>
